src/icons/svgs/24/bars-sort-up.svg

<svg width="24" height="24" viewBox="0 0 24 24" fill="none" xmlns="http://www.w3.org/2000/svg">
<path d="M9.75 6.82609H3.92812C3.43393 6.82609 3 6.41522 3 5.94728C3 5.41087 3.43393 5 3.92812 5H9.75C10.2804 5 10.7143 5.41087 10.7143 5.91304C10.7143 6.41522 10.2804 6.82609 9.75 6.82609ZM20.0357 19H3.92812C3.43393 19 3 18.5891 3 18.1212C3 17.6533 3.43393 17.1739 3.92812 17.1739H20.0357C20.5661 17.1739 21 17.5848 21 18.0527C21 18.5207 20.5661 19 20.0357 19ZM14.8929 12.913H3.92812C3.43393 12.913 3 12.5022 3 12.0342C3 11.4978 3.43393 11.087 3.92812 11.087H14.8567C15.4232 11.087 15.8571 11.4978 15.8571 12C15.8571 12.5022 15.4232 12.913 14.8929 12.913Z" fill="black"/>
</svg>

<svg width="24" height="24" viewBox="0 0 24 24" xmlns="http://www.w3.org/2000/svg">
    <path d="M9.75 6.826H3.928c-.494 0-.928-.41-.928-.879C3 5.411 3.434 5 3.928 5H9.75c.53 0 .964.41.964.913 0 .502-.434.913-.964.913ZM20.036 19H3.928C3.434 19 3 18.59 3 18.121c0-.468.434-.947.928-.947h16.108c.53 0 .964.41.964.879 0 .468-.434.947-.964.947Zm-5.143-6.087H3.928c-.494 0-.928-.41-.928-.879 0-.536.434-.947.928-.947h10.929c.566 0 1 .41 1 .913 0 .502-.434.913-.964.913Z"/>
</svg>
